src/images_karasa_jaga_svg/cmd/32/leaveallgroups.svg

<svg height="32" viewBox="0 0 32 32" width="32" xmlns="http://www.w3.org/2000/svg" xmlns:xlink="http://www.w3.org/1999/xlink"><linearGradient id="a"><stop offset="0" stop-color="#717174"/><stop offset=".5" stop-color="#9c9ca1"/><stop offset="1" stop-color="#bdbdc2"/></linearGradient><linearGradient id="b" gradientUnits="userSpaceOnUse" x1="66.314041" x2="109.66501" xlink:href="#c" y1="-24.452526" y2="-63.862495"/><linearGradient id="c"><stop offset="0" stop-color="#fff"/><stop offset=".42597079" stop-color="#fff"/><stop offset=".5892781" stop-color="#e5e5e5"/><stop offset=".80219781" stop-color="#eaeaea"/><stop offset="1" stop-color="#eee"/></linearGradient><linearGradient id="d" gradientUnits="userSpaceOnUse" x1="125.42899" x2="82.078033" xlink:href="#e" y1="-55.980503" y2="-28.393522"/><linearGradient id="e"><stop offset="0" stop-color="#fff"/><stop offset="1" stop-color="#fff" stop-opacity="0"/></linearGradient><linearGradient id="f" gradientUnits="userSpaceOnUse" x1="47.9548" x2="124.001955" y1="42.023568" y2="42.023568"><stop offset="0" stop-color="#b4b4b6"/><stop offset=".5" stop-color="#9c9ca1"/><stop offset="1" stop-color="#cdcdd1"/></linearGradient><linearGradient id="g" gradientTransform="matrix(.09253752 0 0 .14870594 -6.00486 -81.716489)" gradientUnits="userSpaceOnUse" x1="399.77466" x2="399.77466" xlink:href="#a" y1="1164.6696" y2="549.06134"/><linearGradient id="h" gradientTransform="matrix(.76189483 0 0 1.0158609 -3.046726 -19.300523)" gradientUnits="userSpaceOnUse" x1="119.57646" x2="15.999996" xlink:href="#c" y1="23.792561" y2="109.6508"/><linearGradient id="i" gradientTransform="matrix(0 -1.8256937 -2.2856842 0 118.85641 200.15699)" gradientUnits="userSpaceOnUse" x1="102.31124" x2="74.330322" xlink:href="#e" y1="-5.830213" y2="32"/><radialGradient id="j" cx="34.35376" cy="561.81543" gradientTransform="matrix(-.00000014 3.5745259 3.5735554 .00000002 -1919.7967 -58.621984)" gradientUnits="userSpaceOnUse" r="4"><stop offset="0" stop-color="#590000"/><stop offset="1" stop-color="#bf0000"/></radialGradient><linearGradient id="k" gradientTransform="matrix(-.00000007 2.0000002 2.0000002 .00000007 -1035.7491 -4.531105)" gradientUnits="userSpaceOnUse" x1="31.733051" x2="35.754208" y1="565.5" y2="561.47882"><stop offset="0" stop-color="#f22"/><stop offset="1" stop-color="#cd1f00"/></linearGradient><linearGradient id="l" gradientTransform="matrix(-.00000009 .9999999 .9999999 .00000009 -477.74914 -271.53109)" gradientUnits="userSpaceOnUse" x1="332.16696" x2="338.55817" y1="559.4588" y2="565.84998"><stop offset="0" stop-color="#ffbfbf"/><stop offset="1" stop-color="#ffbfbf" stop-opacity="0"/></linearGradient><linearGradient id="m" gradientTransform="matrix(.66666656 0 0 .666666 42.666668 -.000042)" gradientUnits="userSpaceOnUse" x1="122.70804" x2="132" xlink:href="#a" y1="2.166834" y2="37.94305"/><g transform="scale(.25)"><use height="100%" transform="translate(-71.999996 .000007)" width="100%" xlink:href="#n"/><use height="100%" transform="translate(-115.99999 35.99996)" width="100%" xlink:href="#n"/><use height="100%" transform="translate(-115.99999 115.99996)" width="100%" xlink:href="#n"/><use height="100%" transform="translate(-35.999995 115.99996)" width="100%" xlink:href="#n"/><use height="100%" transform="translate(.000003 71.999958)" width="100%" xlink:href="#n"/><g transform="matrix(.74999785 0 0 .74999785 15.999368 45.269878)"><rect fill="url(#g)" height="96.000275" opacity=".75" rx="3.628262" ry="4.219727" transform="matrix(0 1 1 0 0 0)" width="96.000275" x="-1.693196" y="-5.332516"/><g fill-rule="evenodd"><rect fill="url(#h)" height="85.333572" rx="1.687967" ry="2.031721" transform="matrix(0 1 1 0 0 0)" width="85.333572" x="3.640153" y=".000833"/><path d="m90.667757 30.306895c-21.549668 19.505031-62.383021 36.60947-90.66692449 48.000136v-49.693172c27.07845849-2.783233 69.06532549-6.329791 90.66692449-18.306964z" fill="url(#i)"/></g></g><circle cx="85.978378" cy="42.023575" fill="url(#f)" r="38.023575"/><g transform="matrix(1.1725194 0 0 1.1725194 -16.369925 86.831818)"><circle cx="87.289543" cy="-38.217342" fill="url(#b)" r="29.015505"/><path d="m110.21469-55.9805c-15.369524 8.107768-34.969601 17.129695-51.703481 18.849667v2.317139a29.015505 29.015505 0 0 0 19.235496 23.962464c13.862291-9.340233 27.438975-21.533122 38.253295-31.329892a29.015505 29.015505 0 0 0 -5.78531-13.799378z" fill="url(#d)" fill-rule="evenodd"/></g><path id="n" d="m119.99999.00004h7.999997v7.999987h-7.999997z" fill="url(#m)"/><path d="m44 0v32h-44v96h96v-44h32v-84z" fill="#10c4f8" fill-opacity=".288235" opacity=".99"/><g transform="matrix(0 4 -4 0 273.87566 -333.00341)"><path d="m84.250853 67.468895.00001-7.99999 1.5-.00001.49999 4 8.00001-7.99999 2.00001 2-8.00001 8 4 .5v1.50001z" fill="none" stroke="url(#j)" stroke-linejoin="round" stroke-width="2"/><path d="m84.250853 67.468895.00001-7.99999 1.5-.00001.49999 4 8.00001-7.99999 2.00001 2-8.00001 8 4 .5v1.50001z" fill="url(#k)" fill-rule="evenodd"/><path d="m84.250853 67.468895.00001-7.99999 1.5-.00001.49999 4 8.00001-7.99999.99998 1z" fill="url(#l)" fill-rule="evenodd"/><circle cx="66.718925" cy="85.000862" fill="#ffbfbf" r=".75" transform="matrix(-.00000003 1 1 .00000003 0 0)"/></g></g></svg>

<?xml version="1.0" encoding="UTF-8" standalone="no"?>
<!-- Created with Inkscape (http://www.inkscape.org/) -->

<svg
   xmlns:dc="http://purl.org/dc/elements/1.1/"
   xmlns:cc="http://creativecommons.org/ns#"
   xmlns:rdf="http://www.w3.org/1999/02/22-rdf-syntax-ns#"
   xmlns:svg="http://www.w3.org/2000/svg"
   xmlns="http://www.w3.org/2000/svg"
   xmlns:xlink="http://www.w3.org/1999/xlink"
   xmlns:sodipodi="http://sodipodi.sourceforge.net/DTD/sodipodi-0.dtd"
   xmlns:inkscape="http://www.inkscape.org/namespaces/inkscape"
   version="1.1"
   id="svg2"
   width="128"
   height="128"
   viewBox="0 0 128 128"
   sodipodi:docname="leaveallgroups.svg"
   inkscape:version="0.92.3 (unknown)"
   inkscape:export-filename="/home/rizmut/Dokumen/Rizmut/Github/libreoffice-style-karasa-jaga/build/images_karasa_jaga/cmd/32/leaveallgroups.png"
   inkscape:export-xdpi="24"
   inkscape:export-ydpi="24">
  <metadata
     id="metadata8">
    <rdf:RDF>
      <cc:Work
         rdf:about="">
        <dc:format>image/svg+xml</dc:format>
        <dc:type
           rdf:resource="http://purl.org/dc/dcmitype/StillImage" />
        <dc:title />
      </cc:Work>
    </rdf:RDF>
  </metadata>
  <defs
     id="defs6">
    <linearGradient
       id="linearGradient4112">
      <stop
         id="stop4114"
         offset="0"
         style="stop-color:#bbf10e;stop-opacity:1" />
      <stop
         id="stop4116"
         offset="1"
         style="stop-color:#5f9207;stop-opacity:1" />
    </linearGradient>
    <linearGradient
       id="linearGradient4105">
      <stop
         id="stop4107"
         offset="0"
         style="stop-color:#033a13;stop-opacity:1" />
      <stop
         id="stop4109"
         offset="1"
         style="stop-color:#398c37;stop-opacity:1" />
    </linearGradient>
    <linearGradient
       inkscape:collect="always"
       xlink:href="#linearGradient4373"
       id="linearGradient10248"
       gradientUnits="userSpaceOnUse"
       gradientTransform="matrix(0.17638886,0,0,0.17638871,11.288891,263.13331)"
       x1="122.70804"
       y1="2.1668341"
       x2="132"
       y2="37.94305" />
    <linearGradient
       id="linearGradient4373">
      <stop
         id="stop4375"
         style="stop-color:#717174;stop-opacity:1"
         offset="0" />
      <stop
         id="stop4377"
         style="stop-color:#9c9ca1;stop-opacity:1"
         offset="0.5" />
      <stop
         id="stop4379"
         style="stop-color:#bdbdc2;stop-opacity:1"
         offset="1" />
    </linearGradient>
    <linearGradient
       inkscape:collect="always"
       xlink:href="#linearGradient2431"
       id="linearGradient7831"
       x1="66.314041"
       y1="-24.452526"
       x2="109.66501"
       y2="-63.862495"
       gradientUnits="userSpaceOnUse" />
    <linearGradient
       id="linearGradient2431">
      <stop
         id="stop2433"
         style="stop-color:#ffffff;stop-opacity:1"
         offset="0" />
      <stop
         id="stop2435"
         style="stop-color:#ffffff;stop-opacity:1"
         offset="0.42597079" />
      <stop
         id="stop2437"
         style="stop-color:#e5e5e5;stop-opacity:1"
         offset="0.5892781" />
      <stop
         id="stop2439"
         style="stop-color:#eaeaea;stop-opacity:1"
         offset="0.80219781" />
      <stop
         id="stop2441"
         style="stop-color:#eeeeee;stop-opacity:1"
         offset="1" />
    </linearGradient>
    <linearGradient
       inkscape:collect="always"
       xlink:href="#linearGradient3310"
       id="linearGradient7833"
       x1="125.42899"
       y1="-55.980503"
       x2="82.078033"
       y2="-28.393522"
       gradientUnits="userSpaceOnUse" />
    <linearGradient
       id="linearGradient3310">
      <stop
         id="stop3312"
         style="stop-color:#ffffff;stop-opacity:1"
         offset="0" />
      <stop
         id="stop3314"
         style="stop-color:#ffffff;stop-opacity:0"
         offset="1" />
    </linearGradient>
    <linearGradient
       inkscape:collect="always"
       xlink:href="#linearGradient7422-6"
       id="linearGradient1705"
       x1="53.544228"
       y1="38.029163"
       x2="121.03486"
       y2="38.029163"
       gradientUnits="userSpaceOnUse"
       gradientTransform="matrix(1.1267809,0,0,1.1267809,-12.377813,-0.82696664)" />
    <linearGradient
       id="linearGradient7422-6">
      <stop
         style="stop-color:#b4b4b6;stop-opacity:1;"
         offset="0"
         id="stop7424-3" />
      <stop
         id="stop5367"
         offset="0.5"
         style="stop-color:#9c9ca1;stop-opacity:1;" />
      <stop
         id="stop7426-2"
         offset="1"
         style="stop-color:#cdcdd1;stop-opacity:1;" />
    </linearGradient>
    <linearGradient
       x1="399.77466"
       y1="1164.6696"
       x2="399.77466"
       y2="549.06134"
       id="linearGradient5501-5"
       xlink:href="#linearGradient4373"
       gradientUnits="userSpaceOnUse"
       gradientTransform="matrix(0.09253752,0,0,0.14870594,-6.0048599,-81.716489)" />
    <linearGradient
       x1="119.57646"
       y1="23.792561"
       x2="15.999996"
       y2="109.6508"
       id="linearGradient5503-3"
       xlink:href="#linearGradient2431"
       gradientUnits="userSpaceOnUse"
       gradientTransform="matrix(0.76189483,0,0,1.0158609,-3.0467262,-19.300523)" />
    <linearGradient
       x1="102.31124"
       y1="-5.8302126"
       x2="74.330322"
       y2="32"
       id="linearGradient5505-2"
       xlink:href="#linearGradient3310"
       gradientUnits="userSpaceOnUse"
       gradientTransform="matrix(0,-1.8256937,-2.2856842,0,118.85641,200.15699)" />
    <linearGradient
       inkscape:collect="always"
       xlink:href="#linearGradient4373"
       id="linearGradient981"
       gradientUnits="userSpaceOnUse"
       gradientTransform="matrix(0.66666656,0,0,0.666666,42.666668,-4.2375644e-5)"
       x1="122.70804"
       y1="2.1668341"
       x2="132"
       y2="37.94305" />
    <radialGradient
       inkscape:collect="always"
       xlink:href="#linearGradient3773"
       id="radialGradient5389"
       gradientUnits="userSpaceOnUse"
       gradientTransform="matrix(-1.3740749e-7,3.5745259,3.5735554,1.7220227e-8,-1919.7967,-58.621984)"
       cx="34.35376"
       cy="561.81543"
       fx="34.35376"
       fy="561.81543"
       r="4" />
    <linearGradient
       id="linearGradient3773">
      <stop
         style="stop-color:#590000;stop-opacity:1"
         offset="0"
         id="stop3775" />
      <stop
         style="stop-color:#bf0000;stop-opacity:1"
         offset="1"
         id="stop3777" />
    </linearGradient>
    <linearGradient
       inkscape:collect="always"
       xlink:href="#linearGradient3763"
       id="linearGradient5387"
       gradientUnits="userSpaceOnUse"
       gradientTransform="matrix(-6.78982e-8,2.0000002,2.0000002,6.78982e-8,-1035.7491,-4.531105)"
       x1="31.733051"
       y1="565.5"
       x2="35.754208"
       y2="561.47882" />
    <linearGradient
       id="linearGradient3763">
      <stop
         style="stop-color:#ff2222;stop-opacity:1;"
         offset="0"
         id="stop3765" />
      <stop
         style="stop-color:#cd1f00;stop-opacity:1;"
         offset="1"
         id="stop3767" />
    </linearGradient>
    <linearGradient
       inkscape:collect="always"
       xlink:href="#linearGradient3783"
       id="linearGradient5385"
       gradientUnits="userSpaceOnUse"
       gradientTransform="matrix(-8.5712909e-8,0.9999999,0.9999999,8.5712909e-8,-477.74914,-271.53109)"
       x1="332.16696"
       y1="559.4588"
       x2="338.55817"
       y2="565.84998" />
    <linearGradient
       id="linearGradient3783">
      <stop
         style="stop-color:#ffbfbf;stop-opacity:1;"
         offset="0"
         id="stop3785" />
      <stop
         style="stop-color:#ffbfbf;stop-opacity:0;"
         offset="1"
         id="stop3787" />
    </linearGradient>
  </defs>
  <sodipodi:namedview
     pagecolor="#ffffff"
     bordercolor="#666666"
     borderopacity="1"
     objecttolerance="10"
     gridtolerance="10"
     guidetolerance="10"
     inkscape:pageopacity="0"
     inkscape:pageshadow="2"
     inkscape:window-width="1366"
     inkscape:window-height="706"
     id="namedview4"
     showgrid="true"
     inkscape:snap-page="true"
     inkscape:zoom="1.7285157"
     inkscape:cx="2.7525565"
     inkscape:cy="11.370304"
     inkscape:window-x="0"
     inkscape:window-y="0"
     inkscape:window-maximized="1"
     inkscape:current-layer="svg2"
     inkscape:snap-global="true">
    <inkscape:grid
       type="xygrid"
       id="grid977"
       spacingx="4"
       spacingy="4"
       empspacing="1" />
  </sodipodi:namedview>
  <g
     id="g1015">
    <use
       height="100%"
       width="100%"
       transform="translate(-71.999996,7.086122e-6)"
       id="use1757"
       xlink:href="#rect1677"
       y="0"
       x="0" />
    <use
       x="0"
       y="0"
       xlink:href="#rect1677"
       id="use1759"
       transform="translate(-115.99999,35.99996)"
       width="100%"
       height="100%" />
    <use
       height="100%"
       width="100%"
       transform="translate(-115.99999,115.99996)"
       id="use1761"
       xlink:href="#rect1677"
       y="0"
       x="0" />
    <use
       x="0"
       y="0"
       xlink:href="#rect1677"
       id="use1763"
       transform="translate(-35.999995,115.99996)"
       width="100%"
       height="100%" />
    <use
       height="100%"
       width="100%"
       transform="translate(2.6706055e-6,71.999958)"
       id="use1765"
       xlink:href="#rect1677"
       y="0"
       x="0" />
    <g
       transform="matrix(0.74999785,0,0,0.74999785,15.999368,45.269878)"
       id="g32319">
      <rect
         width="96.000275"
         height="96.000275"
         rx="3.628262"
         ry="4.219727"
         x="-1.6931961"
         y="-5.3325162"
         transform="matrix(0,1,1,0,0,0)"
         id="rect5489"
         style="opacity:0.75;fill:url(#linearGradient5501-5);fill-opacity:1;fill-rule:nonzero;stroke:none;stroke-width:18.2854805;stroke-linecap:round;stroke-linejoin:round;stroke-miterlimit:4;stroke-dasharray:none;stroke-dashoffset:4;stroke-opacity:1" />
      <rect
         width="85.333572"
         height="85.333572"
         rx="1.6879668"
         ry="2.0317206"
         x="3.6401525"
         y="0.00083250634"
         transform="matrix(0,1,1,0,0,0)"
         id="rect5491"
         style="fill:url(#linearGradient5503-3);fill-opacity:1;fill-rule:evenodd;stroke:none;stroke-width:73.141922;stroke-linecap:round;stroke-linejoin:round;stroke-miterlimit:4;stroke-dasharray:none;stroke-opacity:1" />
      <path
         sodipodi:nodetypes="ccccc"
         d="M 90.667757,30.306895 C 69.118089,49.811926 28.284736,66.916365 8.3250633e-4,78.307031 V 28.613859 C 27.079291,25.830626 69.066158,22.284068 90.667757,10.306895 Z"
         id="path5493"
         style="fill:url(#linearGradient5505-2);fill-opacity:1;fill-rule:evenodd;stroke:none;stroke-width:9.14274025px;stroke-linecap:butt;stroke-linejoin:miter;stroke-opacity:1"
         inkscape:connector-curvature="0" />
    </g>
    <circle
       r="38.023575"
       cy="42.023575"
       cx="85.978378"
       style="opacity:1;vector-effect:none;fill:url(#linearGradient1705);fill-opacity:1;stroke:none;stroke-width:6.91337776;stroke-linecap:butt;stroke-linejoin:miter;stroke-miterlimit:4;stroke-dasharray:none;stroke-dashoffset:0;stroke-opacity:1"
       id="path1671" />
    <g
       transform="matrix(1.1725194,0,0,1.1725194,-16.369925,86.831818)"
       id="g1788">
      <circle
         r="29.015505"
         cy="-38.217342"
         cx="87.289543"
         id="circle1733"
         style="opacity:1;vector-effect:none;fill:url(#linearGradient7831);fill-opacity:1;stroke:none;stroke-width:5.27554655;stroke-linecap:butt;stroke-linejoin:miter;stroke-miterlimit:4;stroke-dasharray:none;stroke-dashoffset:0;stroke-opacity:1" />
      <path
         inkscape:connector-curvature="0"
         id="path1735"
         d="m 110.21469,-55.9805 c -15.369524,8.107768 -34.969601,17.129695 -51.703481,18.849667 v 2.317139 A 29.015505,29.015505 0 0 0 77.746705,-10.85123 C 91.608996,-20.191463 105.18568,-32.384352 116,-42.181122 A 29.015505,29.015505 0 0 0 110.21469,-55.9805 Z"
         style="fill:url(#linearGradient7833);fill-opacity:1;fill-rule:evenodd;stroke:none;stroke-width:6.7866931px;stroke-linecap:butt;stroke-linejoin:miter;stroke-opacity:1" />
    </g>
    <rect
       y="3.9999999e-05"
       x="119.99999"
       height="7.9999871"
       width="7.9999971"
       id="rect1677"
       style="opacity:1;vector-effect:none;fill:url(#linearGradient981);fill-opacity:1;stroke:none;stroke-width:3.08015394;stroke-linecap:butt;stroke-linejoin:miter;stroke-miterlimit:4;stroke-dasharray:none;stroke-dashoffset:0;stroke-opacity:1" />
  </g>
  <path
     inkscape:connector-curvature="0"
     style="opacity:0.98999999;fill:#10c4f8;fill-opacity:0.28823529;stroke:none;stroke-width:5.47016287;stroke-linecap:square;stroke-linejoin:round;stroke-miterlimit:4;stroke-dasharray:none;stroke-dashoffset:0;stroke-opacity:1"
     d="M 44,0 V 32 H 0 v 96 H 96 V 84 h 32 V 0 Z"
     id="rect5288"
     sodipodi:nodetypes="ccccccccc" />
  <g
     id="g5237"
     transform="matrix(0,4,-4,0,273.87566,-333.00341)">
    <path
       style="display:inline;fill:none;fill-opacity:1;fill-rule:evenodd;stroke:url(#radialGradient5389);stroke-width:2;stroke-linecap:butt;stroke-linejoin:round;stroke-miterlimit:4;stroke-dasharray:none;stroke-opacity:1"
       d="m 84.250853,67.468895 10e-6,-7.99999 1.5,-10e-6 0.49999,4 8.00001,-7.99999 2.00001,2 -8.00001,8 4,0.5 v 1.50001 z"
       id="path5303"
       sodipodi:nodetypes="cccccccccc"
       inkscape:connector-curvature="0" />
    <path
       sodipodi:nodetypes="cccccccccc"
       id="path5305"
       d="m 84.250853,67.468895 10e-6,-7.99999 1.5,-10e-6 0.49999,4 8.00001,-7.99999 2.00001,2 -8.00001,8 4,0.5 v 1.50001 z"
       style="display:inline;fill:url(#linearGradient5387);fill-opacity:1;fill-rule:evenodd;stroke:none;stroke-width:1px;stroke-linecap:butt;stroke-linejoin:miter;stroke-opacity:1"
       inkscape:connector-curvature="0" />
    <path
       style="display:inline;fill:url(#linearGradient5385);fill-opacity:1;fill-rule:evenodd;stroke:none;stroke-width:1px;stroke-linecap:butt;stroke-linejoin:miter;stroke-opacity:1"
       d="m 84.250853,67.468895 10e-6,-7.99999 1.5,-10e-6 0.49999,4 8.00001,-7.99999 0.99998,1 z"
       id="path5307"
       sodipodi:nodetypes="ccccccc"
       inkscape:connector-curvature="0" />
    <circle
       style="display:inline;opacity:1;fill:#ffbfbf;fill-opacity:1;stroke:none;stroke-width:3;stroke-linecap:round;stroke-linejoin:round;stroke-miterlimit:4;stroke-dasharray:none;stroke-opacity:1"
       id="path5309"
       transform="matrix(-2.7633477e-8,1,1,2.7633477e-8,0,0)"
       cx="66.718925"
       cy="85.000862"
       r="0.75" />
  </g>
</svg>
